X:1
T:Lesson 8 - Largo from The New World Symphony
C:Anton Dvorak
M:C
K:D
L:1/8
!mf!vF3 A A4|F3 E D4|E3 F A3 F|E8|uF3 A A4|F3 E D4|
E2 F2 E3 D|D8|!f!vB3 d d4|c2 A2 B4|B2 d2 c2 A2|B8|
!p!uB3 d d4|c2 A2 B4|B2 d2 c2 A2|B8|!mf!vF3 A A4|F3 E D4|E3 F A3 F|
E8|uF3 A A4|d3 e f4|e3 d e2 B2|d8|!p!e3 d e2 B2|d8|]
